X: 1
T:F\o{}ringerdans
R:Sonderh\o{}ning
Q:1/4=92
M:2/4
L:1/8
C:e. Gr\"uner Nielsen
O:Denmark
A:Fan\o{}
K:D
df f/a/f/d/| g2 e2| d/d/d dd| e/e/e ee| \
df aa| bg e2| dd ce| d2d2 :|
|: ee ef| e/d/c/B/ AA| ff fg| ff/g/ ff| \
dd ff| ag e2| dd ce| d2 d2:|
